assets/images/icons/key-info-01.svg

<svg width="32" height="32" viewBox="0 0 32 32" fill="none" xmlns="http://www.w3.org/2000/svg">
<g clip-path="url(#clip0_211_3616)">
<path opacity="0.1" d="M0.223155 23.1618C-0.0589054 20.752 -0.098086 18.3874 0.248062 16.248C0.673696 13.6174 1.78493 10.6909 2.99894 8.07362C5.37163 2.95839 9.61911 1.16885 14.7912 0.362065C22.0007 -0.762522 31.9372 0.362091 32 9.08714C31.6383 12.2073 29.2517 20.8815 21.1951 21.5434C18.5313 21.7622 17.5348 24.4378 16.3612 27.5006C13.2729 35.5602 1.25575 31.9835 0.223155 23.1618Z" fill="#7FB51F"/>
<g clip-path="url(#clip1_211_3616)">
<path d="M24.705 14.9885C24.2809 15.382 22.8588 16.7222 22.4098 17.1424C22.2117 17.3467 22.1011 17.6201 22.1015 17.9046C22.0946 18.7703 22.2472 19.9367 21.5062 20.5724L19.3395 22.6663C18.8824 23.1005 18.2745 23.3401 17.6442 23.3345C17.0138 23.3289 16.4102 23.0786 15.9609 22.6364C14.8885 21.7675 14.5097 20.3081 15.3572 19.1464C15.4975 18.9569 15.5726 18.7271 15.5713 18.4913V16.1147C15.5693 15.8238 15.4526 15.5455 15.2465 15.3402C15.0405 15.1349 14.7617 15.0193 14.4708 15.0185C14.2033 15.0175 13.9389 14.9619 13.6937 14.8551C13.4486 14.7484 13.2277 14.5927 13.0448 14.3976L10.1416 11.1946C8.66516 12.368 7.57597 13.9585 7.01562 15.7593C7.01566 15.7636 9.75189 18.5427 9.75189 18.5427C9.99943 18.7896 10.328 18.9387 10.6768 18.9623C11.2535 19.0026 11.7936 19.2593 12.189 19.6809C12.5845 20.1026 12.806 20.6581 12.8093 21.2361L12.8093 22.782C12.8101 23.1325 12.7417 23.4798 12.6079 23.8039C12.4742 24.1279 12.2778 24.4224 12.03 24.6704C11.7181 24.9865 11.5258 25.4013 11.4862 25.8437L11.332 26.7515C19.0613 31.1655 28.1014 23.2131 24.705 14.9885Z" fill="#7FB51F"/>
<path d="M11.9518 22.7818V21.236C11.9499 20.8752 11.8116 20.5285 11.5645 20.2656C11.3175 20.0027 10.9801 19.843 10.6201 19.8186C10.0628 19.7797 9.53821 19.541 9.14279 19.1463L6.76622 16.7312C6.64162 17.337 6.57991 17.954 6.58209 18.5725C6.58008 20.0756 6.93922 21.5573 7.62926 22.8927C8.31931 24.228 9.32008 25.3781 10.5473 26.246L10.6715 25.5224C10.7526 24.4005 11.988 23.9093 11.9518 22.7818Z" fill="#7FB51F"/>
<path d="M17.8347 13.1129C17.9341 13.2818 18.0759 13.4218 18.246 13.5191C18.4161 13.6163 18.6087 13.6675 18.8046 13.6675C19.0006 13.6675 19.1931 13.6163 19.3632 13.519C19.5334 13.4218 19.6751 13.2818 19.7745 13.1129L21.9156 9.40032C22.2352 8.85564 22.4037 8.23552 22.4037 7.60397C22.4037 6.97242 22.2352 6.35231 21.9156 5.80763C19.3991 1.75869 13.4492 5.19681 15.6937 9.40034L17.8347 13.1129ZM18.8068 5.62782C21.41 5.71022 21.4094 9.49391 18.8067 9.57592C18.2864 9.57095 17.7891 9.36077 17.423 8.9911C17.0568 8.62143 16.8514 8.12216 16.8514 7.60185C16.8514 7.08154 17.0569 6.58227 17.423 6.2126C17.7892 5.84294 18.2865 5.63278 18.8068 5.62782Z" fill="#7FB51F"/>
<path d="M13.6726 13.8153C13.775 13.924 13.8983 14.0108 14.0353 14.0705C14.1722 14.1301 14.3198 14.1613 14.4691 14.1621C14.9866 14.1645 15.4824 14.3708 15.8487 14.7364C16.2151 15.1019 16.4225 15.5972 16.426 16.1148V18.4913C16.4995 19.29 15.7253 19.788 15.7494 20.5681C15.7182 21.1747 16.1479 21.6483 16.5674 22.0283C16.8558 22.3144 17.2445 22.4766 17.6507 22.4806C18.0569 22.4846 18.4486 22.3301 18.7426 22.0498L20.9094 19.9558C21.4221 19.5049 21.1979 18.5581 21.2434 17.9047C21.2424 17.3897 21.4456 16.8954 21.8087 16.5301L24.3223 14.1707C23.754 13.0857 22.9752 12.125 22.0313 11.3445C21.7576 11.8146 20.9834 13.157 20.6996 13.6483C20.5054 13.9782 20.2285 14.2518 19.8961 14.4418C19.5638 14.6318 19.1876 14.7318 18.8047 14.7318C18.4219 14.7318 18.0457 14.6318 17.7133 14.4418C17.381 14.2517 17.1041 13.9782 16.9099 13.6482C16.9099 13.6483 14.5538 9.55994 14.452 9.28052C13.1611 9.49147 11.9295 9.97304 10.8379 10.6936C11.1971 11.0882 13.2637 13.367 13.6726 13.8153Z" fill="#7FB51F"/>
<path d="M18.8073 8.71963C19.1007 8.71503 19.3805 8.59526 19.5863 8.38616C19.7922 8.17706 19.9076 7.89541 19.9076 7.60199C19.9076 7.30857 19.7922 7.02692 19.5863 6.81782C19.3805 6.60873 19.1007 6.48896 18.8073 6.48438C18.5139 6.48897 18.2341 6.60875 18.0282 6.81785C17.8224 7.02695 17.707 7.3086 17.707 7.60202C17.707 7.89544 17.8224 8.17709 18.0283 8.38618C18.2341 8.59528 18.5139 8.71504 18.8073 8.71963Z" fill="#7FB51F"/>
</g>
</g>
<defs>
<clipPath id="clip0_211_3616">
<rect width="32" height="32" fill="white"/>
</clipPath>
<clipPath id="clip1_211_3616">
<rect width="24" height="24" fill="white" transform="translate(4 4)"/>
</clipPath>
</defs>
</svg>

<svg xmlns="http://www.w3.org/2000/svg" width="32" height="32" fill="none"><g fill="#7FB51F" clip-path="url(#a)"><path d="M.223 23.162c-.282-2.41-.321-4.775.025-6.914.426-2.63 1.537-5.557 2.75-8.174C5.373 2.958 9.62 1.169 14.792.362 22.001-.763 31.937.362 32 9.087c-.362 3.12-2.748 11.795-10.805 12.456-2.664.22-3.66 2.895-4.834 5.958-3.088 8.06-15.105 4.482-16.138-4.34" opacity=".1"/><g clip-path="url(#b)"><path d="M24.705 14.989c-.424.393-1.846 1.733-2.295 2.153a1.1 1.1 0 0 0-.308.763c-.007.865.145 2.032-.596 2.667l-2.166 2.094a2.43 2.43 0 0 1-3.38-.03c-1.072-.869-1.45-2.328-.603-3.49.14-.19.216-.419.214-.655v-2.376a1.104 1.104 0 0 0-1.1-1.096 1.96 1.96 0 0 1-1.426-.621l-2.903-3.203a9.4 9.4 0 0 0-3.126 4.564c0 .005 2.736 2.784 2.736 2.784.247.247.576.396.925.42a2.29 2.29 0 0 1 2.132 2.273v1.546a2.66 2.66 0 0 1-.779 1.888 1.9 1.9 0 0 0-.544 1.174l-.154.907c7.73 4.415 16.77-3.538 13.373-11.763"/><path d="M11.952 22.782v-1.546a1.43 1.43 0 0 0-1.332-1.417 2.32 2.32 0 0 1-1.477-.673l-2.377-2.415a9.38 9.38 0 0 0 3.781 9.515l.124-.724c.082-1.121 1.317-1.613 1.28-2.74m5.884-9.669a1.126 1.126 0 0 0 1.94 0l2.14-3.713a3.55 3.55 0 0 0 0-3.592c-2.515-4.05-8.465-.611-6.22 3.592zm.972-7.485c2.603.082 2.602 3.866 0 3.948a1.974 1.974 0 0 1 0-3.948"/><path d="M13.673 13.815a1.1 1.1 0 0 0 .796.347 1.966 1.966 0 0 1 1.957 1.953v2.376c.074.799-.7 1.297-.677 2.077-.03.607.399 1.08.818 1.46a1.56 1.56 0 0 0 2.176.022l2.166-2.094c.513-.451.289-1.398.334-2.051a1.94 1.94 0 0 1 .566-1.375l2.513-2.36a9.2 9.2 0 0 0-2.29-2.825c-.274.47-1.049 1.812-1.332 2.303a2.2 2.2 0 0 1-3.79 0s-2.356-4.088-2.458-4.367a9.3 9.3 0 0 0-3.614 1.413c.36.394 2.426 2.673 2.835 3.121m5.134-5.095a1.118 1.118 0 0 0 0-2.236 1.118 1.118 0 0 0 0 2.236"/></g></g><defs><clipPath id="a"><path fill="#fff" d="M0 0h32v32H0z"/></clipPath><clipPath id="b"><path fill="#fff" d="M4 4h24v24H4z"/></clipPath></defs></svg>
